X: 2012
T: Sandy o'er the Lee. or Mr Bairds favourite Reel.
%R: reel
B: Niel Gow & Sons "A Second Collection of Strathspey Reels, etc." v.2 p.1 #2
Z: 2022 John Chambers <jc:trillian.mit.edu>
M: C|
L: 1/8
K: D
% - - - - - - - - - -
V: 1 staves=2
|:\
A, |\
(D>EF).G AFFB | .A(FTED) TE3F | (DEF).G AFFB | .A(GTFE) D3 :: g | (f/g/a) e>f defa | .A(FT.E.D) TE3g |
[1 (f/g/a) ef defa | .A(GTFE) D3 :|[2 faef defa | .A(GTFE) D3 |: A | FADA FADB | .A(FTED) TE3G | FADA FADB |
.A(GTFE) D3 :: g | (f/g/a) ef defa | .A(FT.ED) TE3g |[1 f/g/a ef defa | .A(GTFE) D3 :|[2 faef defa | .A(GTFE) D3 |]
% - - - - - - - - - -
% Voice 2 preserves the staff layout in the book.
V: 2 clef=bass middle=d
z | d2d2 d2d2 | d2d2 a2A2 | d2d2 d3g | a2A2 d3 :: z | d'2c'2 d'2d2 | d2d2 a2A2 |
[1 d'2c'2 d'2d2 | a2A2 d3 :[2 d'2c'2 d'2d2 | a2A2 d3 |: z | d2d2 d3g | f2d2 A2A2 | d2d2 d3g |
a2A2 d3 :: z | d'2c'2 d'2d2 | d2d2 a2A2 |[1 d'2c'2 d'2d2 | a2A2 d3 :|[2 d'2c'2 d'2d2 | a2A2 d3 |]


